outputs/icons/content/email_outline_sharp.svg

<svg xmlns="http://www.w3.org/2000/svg" width="1200" height="1200" fill="none"><g clip-path="url(#a)"><path fill="#000" d="M1100 200H100.5l-.5 800h1000zm-100 700H200V400l400 250 400-250zM600 550 200 300h800z"/></g><defs><clipPath id="a"><path fill="#fff" d="M0 0h1200v1200H0z"/></clipPath></defs></svg>

<svg width="1200" height="1200" viewBox="0 0 1200 1200" fill="none" xmlns="http://www.w3.org/2000/svg"><g clip-path="url(#clip0_124_707)"><path d="M1100 200H100.5L100 1000H1100V200ZM1000 900H200V400L600 650L1000 400V900ZM600 550L200 300H1000L600 550Z" fill="#1D1E23"/></g><defs><clipPath id="clip0_124_707"><path width="24" fill="white" d="M0 0H1200V1200H0V0z"/></clipPath></defs></svg>
